X: 0
T: Siobhan O'Donnell's
C: John Brady
M: 4/4
L: 1/8
K: A
|:"A"ABce a2 "A/C#"ba | "D"f3a fece | "D"~f3e cBAF | "Bm"EFAB "E"cBAF|
"F#m"ECEF ABce | "E"f3a fece | "D"f2ec "D"dB"A/C#" (3cBA | "Bm"BAGB "E"cA (3AAA :| 
|: "A"ABce "A/B"fe"A/C#"ce | "D"fA (3AAA "D"fA"A/C#"eA | "D"fA (3AAA fAef | "Bm"aefa "E"eAce |
"F#m"f3e cBAF | "E"ECEF ABce | "D"f2 "A/C#"ec "Bm"dB"A" (3cBA | "D/E"BAGB cA (3AAA :|